!!!OTL: 1370. Lustig, froh ihr deutschen Brueder!
!!!ARE: Europa, Mitteleuropa, Deutschland, Rheinland
!!!SCT: E1370
!!!TXL: @@DE
!!!YEM: Copyright 1995, estate of Helmut Schaffrath.
**kern	**text
*ICvox	*
*M3/4	*
*k[b-]	*
*F:	*
!LO:TX:a:t=Heiter.	!
!LO:TX:a:t=Jn den Rheinlanden ſehr verbreitet.	!
{8f	Lu-
8g	-ſtig,
=1	=1
4.a	froh
8a	ihr
8b-/	deut-
8a	-ſchen
=2	=2
8aL	Brü-
8gJ	.
4g}	-der,
{8g	le-
8a	-get
=3	=3
4.b-	eu-
8b-	-re
8cc	Waf-
8b-	-fen
=4	=4
8b-L	nie-
8aJ	.
4a}	-der,
{8cc	denn
8cc	es
=5	=5
4.b-	kann
8a	nicht
8dd	an-
8b-	-ders
=6	=6
4g	ſein!
4r}	.
{8f	Ʒu
8a	dem
=7	=7
4cc	hel-
4cc	-len
8dd	Waf-
8cc	-fen-
=8	=8
8b-L	-klan-
8aJ	.
8b-L	-ge,
8ddJ}	.
{8cc	ʒu
8b-	dem
=9	=9
8aL	rü-
8gJ	.
8aL	-ſti-
8ccJ	.
8b-/	-gen
8a	Ge-
=10	=10
8gL	-ſan-
8ccJ	.
4cc;}	-ge
{8g	trin-
8g	-ket
=11	=11
4.g	noch
8a	ein
8b-	gut
8cc	Glas
=12	=12
2a;}	Wein!
==	==
!!!AGN: Staende -, Soldaten -, Kriegs - Lied
!!!ONB: ESAC (Essen Associative Code) Database: ERK3
!!!AMT: simple triple
!!!AIN: vox
!!!EED: Helmut Schaffrath
!!!EEV: 1.0
!!!GTL: Staendelieder (Berufslieder). 1. Soldaten- und Kriegslieder. Soldatenlieder seit dem 30jaehr. Kriege.
!!!URL-scan: https://rosdok.uni-rostock.de/mcrviewer/recordIdentifier/rosdok_ppn745177999/iview2/phys_0244.iview2?x=-128.77276441889285&y=95.60315701004583&scale=0.5870222003877487&rotation=0&layout=singlePageLayout
!!!ENC: Anna Maria Matuszewska
!!!EEV: 2024/12/30
*-	*-
